X:1
T:What If It Were Today?
T:Lelia Naylor Morris, 1912
T:What If It Were Today?
T:Public Domain
T:Public Domain
T:Public Domain
T:Public Domain
C:Lelia Naylor Morris, 1912
Z:Public Domain
%%score ( 1 2 ) ( 3 4 )
L:1/8
M:6/4
K:Db
V:1 treble 
V:2 treble 
V:3 bass 
V:4 bass 
V:1
 [DF]2 [DF]2 [DF]2 [DA]2 [DA]2 [DA]2 | [=EB]4 F2 [DA]6 | [FA]2 [FB]2 [Fc]2 [Fd]4 [FB]2 | [Gc]12 | %4
w: 1.~Je- sus is com- ing to|earth a- gain;|if it were to- day?|Com-|
w: 2.~Sa- tan’s do- min- ion will|then be o’er,|that it were to- day!|Sor-|
w: 3.~Faith- ful and true would He|find us here|He should come to- day?|Watch-|
 [EG]2 [EG]2 [EG]2 [GB]2 [GB]2 [GB]2 | [Gc]4 [Gc]2 [EG]6 | [Ge]2 [Fd]2 [Ec]2 [GB]4 [Gc]2 | [FA]12 | %8
w: ing in pow- er and love|to reign; what|if it were to- day?|Com-|
w: row and sigh- ing shall be|no more, O|that it were to- day!|Then|
w: ing in glad- ness and not|in fear, if|He should come to- day?|Signs|
 [Fd]2 [Fc]2 [FB]2 ([FA]2 [=E=G]2) [FA]2 | [FB]4 F2 [FA]6 | %10
w: ing to claim His * chos-|en bride, all|
w: shall the dead in * Christ|a- rise, caught|
w: of His com- ing * mul-|ti- ply; morn-|
 [Fd]2 [Fc]2 [FB]2 ([FA]2 [=E=G]2) [FA]2 | [Ac]4 [GB]2 [GB]6 | [Ge]2 [Ge]2 [Ge]2 [Fd]4 [Ad]2 | %13
w: re- deemed and pur- * i-|fied, O- ver|this whole earth scat- tered|
w: to meet Him in * the|skies, When shall|these glor- ies meet our|
w: light breaks in east- * ern|sky. Watch, for|the time is draw- ing|
 [Ac]4 [GB]2 ([FA]4 [EG]2) | [DF]2 [FA]2 [EG]2 [DF]4 [CE]2 | [A,D]6- [A,D]4 z2 || %16
w: wide; what if *|it were to- day? Glo-|ry, *|
w: eyes? What if *|it were to- day? *||
w: nigh; what if *|it were to- day? *||
"^Refrain" (z2 [FA]2 [FA]2) (z2 [EGA]2 [EGA]2) | (z2 [DF]2 [DF]2) (z2 [B,D]2 [B,D]2) | %18
w: ||
w: ||
w: ||
 [FA]2 [FB]2 [Fc]2 [Fe]4 [Fd]2 | E12 | (z2 [EG]2 [EG]2) (z2 [GAc]2 [GAc]2) | %21
w: my heart ’twill bring; Glo-|ry,||
w: |||
w: |||
 (z2 [CE]2 [CE]2) (z2 [D=E=G]2 [DEG]2) | [GB]2 [Gc]2 [Gd]2 [Gc]4 [GB]2 | [DF]12 | [Af]6 [Ge]6 | %25
w: |crown Him king; Glo- ry,|glo-|ry! Haste|
w: ||||
w: ||||
 [Fd]6 [Ec]6 | [GB]2 [G=A]2 [GB]2 [_Ac]4 [GB]2 | [FA]12 | (z2 [ce]2 [ce]2) (z2 d2 d2) | %29
w: to pre-|pare the way; Glo- ry,|glo-||
w: ||||
w: ||||
 (z2 B2 B2) (z2 =G2 G2) | [FA]2 [FB]2 [Fd]2 [Ge]4 [Fd]2 | [Fd]12 |] %32
w: |come some day. * *||
w: |||
w: |||
V:2
 x12 | x4 F2 x6 | x12 | x12 | x12 | x12 | x12 | x12 | x12 | x4 F2 x6 | x12 | x12 | x12 | x12 | %14
w: |what||||||||the|||||
w: |O||||||||up|||||
w: |if||||||||ing|||||
 x12 | x12 || d6 c6 | B6 F6 | x12 | E12 | c6 e6 | =G6 B6 | x12 | x12 | x12 | x12 | x12 | x12 | %28
w: ||glo- ry!|Joy to||glo-|ry! When|we shall|||||||
w: ||||||||||||||
w: ||||||||||||||
 [Ag]6 [Af]6 | [=Ge]6 [=EB]6 | x12 | x12 |] %32
w: ry! Je-|sus will|||
w: ||||
w: ||||
V:3
 [D,A,]2 [D,A,]2 [D,A,]2 [D,F,]2 [D,F,]2 [D,F,]2 | [D,=G,]4 [D,A,]2 [D,F,]6 | %2
w: ~ ~ ~ ~ ~ ~|~ ~ ~|
 [D,D]2 [D,D]2 [D,D]2 [D,A,]4 [D,A,]2 | [E,A,]12 | [A,C]2 [A,C]2 [A,C]2 [A,C]2 [A,C]2 [A,C]2 | %5
w: ~ ~ ~ ~ ~|~|~ ~ ~ ~ ~ ~|
 [A,E]4 [A,E]2 [A,C]6 | [A,,A,]2 [A,,A,]2 [A,,A,]2 [A,,A,]4 [A,,A,]2 | [D,A,]12 | %8
w: ~ ~ ~|~ ~ ~ ~ ~|~|
 [D,A,]2 [D,A,]2 [D,A,]2 [D,D]4 [D,D]2 | [D,D]4 [D,A,]2 [D,D]6 | %10
w: ~ ~ ~ ~ ~|~ ~ ~|
 [D,A,]2 [D,A,]2 [D,A,]2 [D,D]4 [D,D]2 | [G,D]4 [G,D]2 [G,D]6 | %12
w: ~ ~ ~ ~ ~|~ ~ ~|
 [E,C]2 [E,B,]2 [E,__B,]2 [F,A,]4 [F,D]2 | [G,D]4 [G,D]2 ([G,D]4 [G,B,]2) | %14
w: ~ ~ ~ ~ ~|~ ~ ~ *|
 A,2 A,2 A,2 [A,,A,]4 [A,,G,]2 | [D,F,]6- [D,F,]4 z2 || [D,D]6 [C,C]6 | [B,,B,]6 [F,,F,]6 | %18
w: ~ ~ ~ ~ ~|~ *|~ Joy|to my|
 [D,D]6 [D,A,]4 [D,A,]2 | [G,B,]4 [G,B,]2 [G,B,]6 | [C,C]6 [E,E]6 | [G,,G,]6 [B,,B,]6 | %22
w: heart ’twill bring;|~ ~ ~|~ When|we shall|
 [A,,A,]6 [A,,A,]4 [A,,A,]2 | [D,A,]4 [D,A,]2 [D,A,]6 | (D,2 F,2 A,2) (A,,2 C,2 E,2) | %25
w: crown Him King;|~ ~ ~|~ * * Haste * *|
 (B,,2 D,2 F,2) (F,,2 =A,,2 C,2) | [G,D]6 [G,D]4 [G,D]2 | [D,D]4 [D,D]2 [D,D]6 | %28
w: pare * * the * *|||
 (z2 A,2 A,2) (z2 A,2 A,2) | (z2 [B,D]2 [B,D]2) (z2 B,2 B,2) | %30
w: ||
 [A,D]2 [A,D]2 [A,D]2 [A,C]4 [D,A,]2 | [D,A,]12 |] %32
w: ||
V:4
 x12 | x12 | x12 | x12 | x12 | x12 | x12 | x12 | x12 | x12 | x12 | x12 | x12 | x12 | %14
w: ||||||||||||||
 A,2 A,2 A,2 x6 | x12 || x12 | x12 | x12 | x12 | x12 | x12 | x12 | x12 | D6 [A,C]6 | B,6 [F,=A,]6 | %26
w: ~ ~ ~||||||||||to pre-|way; *|
 x12 | x12 | [E,C]6 [F,D]6 | [G,B,]6 [=G,D]6 | x12 | x12 |] %32
w: ||||||

